!!!!SEGMENT: pl-cz--i-155--005-001_anonim--partita-es-moderato.krn
!!!cenid: 18xx:2508
!!!COM: Anonim
!!!COM-rism: pe30004985
!!!CDT:
!!!CNT:
!!!OTL: Partita Es - Moderato
!!!PDT:
!!!AGN: Secular; Partita
!!!SMS-siglum: PL-CZ
!!!SMS-shelfmark: I-155
!!!NIFC-rismID: 1001012513
!!!URL-scan: http://repozytorium.nifc.pl/skany/pl-cz-nut--i-155
!!!ONB-nifc: UWAGA: Parthia 5 (005), części 1. Moderato, 2. Menuetto, 3. Andante, 4. Finale. Uwaga: 5 partii
!!!SMS-variant:
!!!SMS-altvar:
**kern	**kern	**dynam	**kern	**dynam	**kern	**dynam	**kern
*part5	*part4	*part4	*part3	*part3	*part2	*part2	*part1
*staff5	*staff4	*	*staff3	*	*staff2	*	*staff1
*I"Corno Secundo	*I"Corno Primo.	*	*I"Fagotto	*	*I"C Clarinetto.	*	*I"Clarinetto in C
*I'cor 2	*I'cor 1	*	*I'fag	*	*I'cl 2	*	*I'cl 1
*clefG2	*clefG2	*	*clefF4	*	*clefG2	*	*clefG2
*ITrd4c7	*ITrd4c7	*	*	*	*	*	*
*k[b-]	*k[b-]	*	*k[b-]	*	*k[b-]	*	*k[b-]
*M4/4	*M4/4	*	*M4/4	*	*M4/4	*	*M4/4
*met(c)	*met(c)	*	*met(c)	*	*met(c)	*	*met(c)
*all\right	*all\right	*	*all\right	*	*all\right	*	*all\right
*2\right	*2\right	*	*2\right	*	*2\right	*	*2\right
*>[A,A,B,B]	*>[A,A,B,B]	*	*>[A,A,B,B]	*	*>[A,A,B,B]	*	*>[A,A,B,B]
*>A	*>A	*	*>A	*	*>A	*	*>A
!LO:TX:a:i:t=Parthia 5ta	!LO:TX:a:i:t=Parthia 5ta	!	!	!	!	!	!
!	!	!	!LO:TX:a:i:t=Parthia \n5	!	!LO:TX:a:i:t=Parthia 5	!	!
!LO:TX:a:i:t=in Eis	!LO:TX:a:t=in F	!	!LO:TX:a:i:t=Moderato	!	!LO:TX:a:i:t=Allo Moderato	!	!LO:TX:a:i:t=Parthia \n 5ta
!	!	!	!	!	!LO:TX:a:i:t=in F	!	!LO:TX:a:i:t=Allo Mollo
4r	4r	.	4r	.	4cc\	.	4cc\
=1	=1	=1	=1	=1	=1	=1	=1
!LO:TX:t=P:problem:mixed beam	!	!	!	!	!	!	!
!	!	!	!	!	!	!LO:DY:b:t=fo:rj	!
8A/L	8f\L	.	8r	.	4ff\	f	8ff\L
8f\J	8a\J	.	8F\L	.	.	.	8aa\J
2a\	2cc\	.	8E\	.	2aa\	.	2ccc\
.	.	.	8F\J	.	.	.	.
.	.	.	4FF/	.	.	.	.
8g\L	8b-\L	.	4r	.	8gg\L	.	8bb-\L
8f\J	8a\J	.	.	.	8ff\J	.	8aa\J
=2	=2	=2	=2	=2	=2	=2	=2
!LO:TX:t=P:problem:mixed beam	!	!	!	!	!	!	!
8f\L	8a\L	.	8r	.	8ff\L	.	8aa\L
8c/J	8g\J	.	8c\L	.	8ee\J	.	8gg\J
2c/	2g\	.	8Bn\	.	2ee\	.	2gg\
.	.	.	8c\J	.	.	.	.
.	.	.	4C/	.	.	.	.
4r	4r	.	4r	.	4gg\	.	4bb-\
=3	=3	=3	=3	=3	=3	=3	=3
2A/	2f\	.	4F\	.	4.ff\	.	4.aa\
.	.	.	4B-X\	.	.	.	.
.	.	.	.	.	16dd\LL	.	16bb-\LL
.	.	.	.	.	16b-\JJ	.	16gg\JJ
!	!	!	!LO:TX:t=P:problem:mixed beam	!	!	!	!
4f\	4a\	.	8c\L	.	4a/	.	4ff\
.	.	.	8c\	.	.	.	.
4c/	4g\	.	8C/	.	4g/	.	4ee\
.	.	.	8C/J	.	.	.	.
=4	=4	=4	=4	=4	=4	=4	=4
4A/	4f\	.	4F\	.	4a/	.	4ff\
!	!	!	!	!	!	!LO:DY:b	!
4r	4r	.	8C/L	.	4r	p	4r
.	.	.	8AA/J	.	.	.	.
4r	4r	.	4FF/	.	4r	.	4r
!	!LO:TX:a:i:t=Solo	!	!	!	!	!	!
4c/	4c/	.	4r	.	4c/	.	4c/
!LO:LB:g=original	!LO:LB:g=original	!	!LO:LB:g=original	!	!	!	!
=5	=5	=5	=5	=5	=5	=5	=5
!LO:TX:t=P:problem:mixed beam	!	!	!	!	!	!	!
8A/L	8f\L	.	8r	.	4f/	.	8f/L
8f\J	8a\J	.	8F\L	.	.	.	8a/J
2a\	2cc\	.	8E\	.	2a/	.	2cc\
.	.	.	8F\J	.	.	.	.
.	.	.	4FF/	.	.	.	.
!	!	!	!	!	!LO:LB:g=original	!	!
8g\L	8b-\L	.	4r	.	8g/L	.	8b-/L
8f\J	8a\J	.	.	.	8f/J	.	8a/J
!	!	!	!	!	!	!	!LO:LB:g=original
=6	=6	=6	=6	=6	=6	=6	=6
8f\L	8a\L	.	8r	.	8f/L	.	8a/L
8c\J	8g\J	.	8c\L	.	8e/J	.	8g/J
!	!	!	!LO:SIC:v:s=8Bn\	!	!	!	!
2c/	2g\	.	8B-\	.	2e/	.	2g/
.	.	.	8c\J	.	.	.	.
.	.	.	4C/	.	.	.	.
4f\	4b-\	.	4r	.	4g/	.	4b-/
=7	=7	=7	=7	=7	=7	=7	=7
*	*	*	*2\right	*	*	*	*
4.f\	4.a\	.	2F\	.	4.f/	.	4.a/
16g\LL	16b-\LL	.	.	.	16g/LL	.	16b-\LL
16a\JJ	16cc\JJ	.	.	.	16a/JJ	.	16cc\JJ
4g\	4b-\	.	4E\	.	4g/	.	4b-/
4f\	4a\	.	4F\	.	4f/	.	4a/
=8	=8	=8	=8	=8	=8	=8	=8
2f\	2a\	.	4c\	.	2f/	.	2a/
.	.	.	8G\L	.	.	.	.
.	.	.	8E\J	.	.	.	.
4c/	4g\	.	4C/	.	4e/	.	4g/
4r	4r	.	4r	.	4r	.	4gg\
=9	=9	=9	=9	=9	=9	=9	=9
4r	4r	.	4C/	.	16c/LL	.	8ccc\L
.	.	.	.	.	16e/	.	.
.	.	.	.	.	16g/	.	8gg\J
.	.	.	.	.	16e/JJ	.	.
*	*	*	*	*	*rep	*	*
4c/	4g\	.	4c\	.	16c/LL	.	4gg\
.	.	.	.	.	16e/	.	.
.	.	.	.	.	16g/	.	.
.	.	.	.	.	16e/JJ	.	.
*	*	*	*	*	*Xrep	*	*
*	*	*	*	*	*rep	*	*
4c/	4g\	.	4c\	.	16c/LL	.	8r
.	.	.	.	.	16e/	.	.
.	.	.	.	.	16g/	.	8ee\L
.	.	.	.	.	16e/JJ	.	.
*	*	*	*	*	*Xrep	*	*
*	*	*	*	*	*rep	*	*
4r	4r	.	4c\	.	16c/LL	.	8ee\
.	.	.	.	.	16e/	.	.
.	.	.	.	.	16g/	.	8gg\J
.	.	.	.	.	16e/JJ	.	.
*	*	*	*	*	*Xrep	*	*
=10	=10	=10	=10	=10	=10	=10	=10
4r	4r	.	4GG/	.	16Bn/LL	.	8gg\L
.	.	.	.	.	16d/	.	.
.	.	.	.	.	16g/	.	8ff\J
.	.	.	.	.	16d/JJ	.	.
*	*	*	*	*	*rep	*	*
4c/	4g\	.	4G\	.	16B/LL	.	4ff\
.	.	.	.	.	16d/	.	.
.	.	.	.	.	16g/	.	.
.	.	.	.	.	16d/JJ	.	.
*	*	*	*	*	*Xrep	*	*
*	*	*	*	*	*rep	*	*
4c/	4g\	.	4G\	.	16B/LL	.	8r
.	.	.	.	.	16d/	.	.
.	.	.	.	.	16g/	.	8ff\L
.	.	.	.	.	16d/JJ	.	.
*	*	*	*	*	*Xrep	*	*
*	*	*	*	*	*rep	*	*
4r	4r	.	4G\	.	16B/LL	.	8bbn\
.	.	.	.	.	16d/	.	.
.	.	.	.	.	16g/	.	8ccc\J
.	.	.	.	.	16d/JJ	.	.
*	*	*	*	*	*Xrep	*	*
!LO:LB:g=original	!	!	!	!	!LO:LB:g=original	!	!
=11	=11	=11	=11	=11	=11	=11	=11
*	*	*	*rep	*	*	*	*
!	!	!	!	!	!LO:SIC:v:s=16BnLL/	!	!
4r	4r	.	4GG/	.	16B-/LL	.	8ddd\L
.	.	.	.	.	16d/	.	.
.	.	.	.	.	16g/	.	8ff\J
.	.	.	.	.	16d/JJ	.	.
*	*	*	*	*	*rep	*	*
!	!	!	!	!	!LO:SIC:v:s=16BnLL/	!	!
4c/	4g\	.	4G\	.	16B-/LL	.	4ff\
.	.	.	.	.	16d/	.	.
.	.	.	.	.	16g/	.	.
.	.	.	.	.	16d/JJ	.	.
!	!	!	!	!	!	!	!LO:LB:g=original
*	*	*	*	*	*Xrep	*	*
*	*	*	*	*	*rep	*	*
!	!	!	!	!	!LO:SIC:v:s=16BnLL/	!	!
4c/	4g\	.	4G\	.	16B-/LL	.	8r
.	.	.	.	.	16d/	.	.
.	.	.	.	.	16g/	.	8dd\L
.	.	.	.	.	16d/JJ	.	.
*	*	*	*	*	*Xrep	*	*
*	*	*	*	*	*rep	*	*
!	!	!	!	!	!LO:SIC:v:s=16BnLL/	!	!
4r	4r	.	4G\	.	16B-/LL	.	8dd\
.	.	.	.	.	16d/	.	.
.	.	.	.	.	16g/	.	8ff\J
.	.	.	.	.	16d/JJ	.	.
*	*	*	*Xrep	*	*Xrep	*	*
!	!LO:LB:g=original	!	!LO:LB:g=original	!	!	!	!
=12	=12	=12	=12	=12	=12	=12	=12
4r	4r	.	4C/	.	16c/LL	.	8ff\L
.	.	.	.	.	16e/	.	.
.	.	.	.	.	16g/	.	8ee\J
.	.	.	.	.	16e/JJ	.	.
*	*	*	*	*	*rep	*	*
4c/	4g\	.	4c\	.	16c/LL	.	4ee\
.	.	.	.	.	16e/	.	.
.	.	.	.	.	16g/	.	.
.	.	.	.	.	16e/JJ	.	.
*	*	*	*	*	*Xrep	*	*
*	*	*	*	*	*rep	*	*
4c/	4g\	.	4C/	.	16c/LL	.	4r
.	.	.	.	.	16e/	.	.
.	.	.	.	.	16g/	.	.
.	.	.	.	.	16e/JJ	.	.
*	*	*	*	*	*Xrep	*	*
*	*	*	*	*	*rep	*	*
4r	4r	.	4r	.	16c/LL	.	4gg\
.	.	.	.	.	16e/	.	.
.	.	.	.	.	16g/	.	.
.	.	.	.	.	16e/JJ	.	.
*	*	*	*	*	*Xrep	*	*
=13	=13	=13	=13	=13	=13	=13	=13
2c/	2c/	.	4r	.	8ff\L	.	8aa\L
.	.	.	.	.	8ee\	.	8gg\
.	.	.	4G\	.	8ee\	.	8gg\
.	.	.	.	.	8aa\J	.	8ccc\J
2r	2r	.	4G\	.	8aa\L	.	8ccc\L
.	.	.	.	.	8gg\	.	8bb-\
.	.	.	4r	.	8gg\	.	8bb-\
.	.	.	.	.	8ff\J	.	8aa\J
=14	=14	=14	=14	=14	=14	=14	=14
2r	2r	.	4r	.	8ff\L	.	8aa\L
.	.	.	.	.	8ee\	.	8gg\
.	.	.	4G\	.	8ee\	.	8gg\
.	.	.	.	.	8dd\J	.	8ff\J
2c/	2g\	.	4G\	.	8dd\L	.	8ff\L
.	.	.	.	.	8cc\	.	8ee\
.	.	.	4G\	.	8cc\	.	8ee\
!	!	!	!	!	!LO:SIC:v:s=8bnJ\	!	!
.	.	.	.	.	8b-\J	.	8dd\J
=15	=15	=15	=15	=15	=15	=15	=15
4c/	4g\	.	2c\	.	4cc\	.	16ee\LL
.	.	.	.	.	.	.	16cc\
.	.	.	.	.	.	.	16dd\
.	.	.	.	.	.	.	16ee\JJ
4r	4r	.	.	.	4r	.	16ff\LL
.	.	.	.	.	.	.	16gg\
.	.	.	.	.	.	.	16aa\
.	.	.	.	.	.	.	16bb-\JJ
!	!	!	!	!	!LO:LB:g=original	!	!LO:LB:g=original
2r	2r	.	8C\L	.	8aa\L	.	8ccc\L
.	.	.	8F\	.	8ff\	.	8aa\
.	.	.	8E\	.	8ee\	.	8gg\
.	.	.	8F\J	.	8dd\J	.	8ff\J
=16	=16	=16	=16	=16	=16	=16	=16
4c/	4g\	.	8G\L	.	4.cc\	.	4.ee\
.	.	.	8E\J	.	.	.	.
4f\	4a\	.	4F\	.	.	.	.
.	.	.	.	.	8a/	.	16ff\LL
.	.	.	.	.	.	.	16dd\JJ
!	!	!	!LO:TX:t=P:problem:mixed beam	!	!	!	!
4c/	4g\	.	8G\L	.	4e/	.	4cc\
.	.	.	8G\	.	.	.	.
4c/	4g\	.	8GG/	.	4d/	.	4bn\
.	.	.	8GG/J	.	.	.	.
=17	=17	=17	=17	=17	=17	=17	=17
4c/	4g\	.	4C/	.	4e/	.	4cc\
4r	4r	.	4r	.	8ee\L	.	8gg\L
.	.	.	.	.	8ee\J	.	8gg\J
4r	4r	.	4r	.	8ff\L	.	8aa\L
.	.	.	.	.	8ff\	.	8aa\
8c/L	8g\L	.	8G\L	.	8dd\	.	8bbn\
8c/J	8g\J	.	8G\J	.	8dd\J	.	8bb\J
!LO:LB:g=original	!	!	!LO:LB:g=original	!	!	!	!
=18	=18	=18	=18	=18	=18	=18	=18
4c/	4g\	.	4C/	.	4ee\	.	4ccc\
4r	4r	.	4r	.	8cc\L	.	8ee\L
.	.	.	.	.	8cc\J	.	8ee\J
4r	4r	.	4r	.	8dd\L	.	8ff\L
.	.	.	.	.	8dd\	.	8ff\
8c/L	8g\L	.	8G\L	.	8bn\	.	8dd\
8c/J	8g\J	.	8G\J	.	8b\J	.	8dd\J
=19	=19	=19	=19	=19	=19	=19	=19
4c/	4g\	.	4C/	.	4cc\	.	4ee\
4r	4r	.	4r	.	4r	.	4r
!	!LO:LB:g=original	!	!	!	!	!	!
4c/	4g\	.	4C/	.	4cc\	.	4ee\
4c/	4g\	.	4c\	.	4cc\	.	4ee\
!	!	!	!	!	!	!	!LO:LB:g=original
=20	=20	=20	=20	=20	=20	=20	=20
2c/	2g\	.	2C/	.	4cc\	.	2ee\
.	.	.	.	.	4r	.	.
!	!LO:TX:b:t=20	!	!LO:TX:b:t=20	!	!	!	!LO:TX:b:t=20
!LO:TX:b:t=20	!	!	!	!	!LO:TX:b:t=20	!	!
4r	4r	.	4r	.	4r	.	4r
=:||:	=:||:	=	=:||:	=	=:||:	=	=:||:
!	!	!	!	!	!LO:LB:g=original	!	!
*>B	*>B	*	*>B	*	*>B	*	*>B
4r	4r	.	4r	.	8cc\L	.	8ee\L
.	.	.	.	.	8dd\J	.	8ff\J
=21	=21	=21	=21	=21	=21	=21	=21
4r	4r	.	8r	.	4ee\	.	4gg\
.	.	.	8c\L	.	.	.	.
4c/	4g\	.	8Bn\	.	2ee\	.	2gg\
.	.	.	8c\J	.	.	.	.
4c/	4g\	.	4C/	.	.	.	.
4r	4r	.	4r	.	8ee\L	.	8gg\L
.	.	.	.	.	16dd\L	.	16ff\L
.	.	.	.	.	16cc\JJ	.	16ee\JJ
=22	=22	=22	=22	=22	=22	=22	=22
4r	4r	.	8r	.	8cc\L	.	8ee\L
.	.	.	8G\L	.	8bn\J	.	8dd\J
4c/	4g\	.	8F#X\	.	2b\	.	2dd\
.	.	.	8G\J	.	.	.	.
4c/	4g\	.	4GG/	.	.	.	.
4r	4r	.	4r	.	4dd\	.	4ff\
!	!	!	!LO:LB:g=original	!	!	!	!
=23	=23	=23	=23	=23	=23	=23	=23
1r	1r	.	2C/	.	8dd\L	.	8ff\L
.	.	.	.	.	8cc\	.	8ee\
.	.	.	.	.	8ff\	.	8aa\
.	.	.	.	.	8ee\J	.	8gg\J
.	.	.	4G\	.	8ee\L	.	8gg\L
.	.	.	.	.	8dd\	.	8ff\
.	.	.	4GG/	.	8cc\	.	8ee\
!	!	!	!	!	!LO:SIC:v:s=8bnJ\	!	!
.	.	.	.	.	8b-\J	.	8dd\J
!LO:LB:g=original	!	!	!	!	!	!	!
=24	=24	=24	=24	=24	=24	=24	=24
2c/	2g\	.	2GG/	.	2bn\	.	2dd\
4c/	4g\	.	4C/	.	4cc\	.	4ee\
4r	4r	.	4r	.	4r	.	8cc\L
.	.	.	.	.	.	.	8ee\J
!	!	!	!	!	!	!	!LO:LB:g=original
=25	=25	=25	=25	=25	=25	=25	=25
4r	4r	.	8r	.	4ee\	.	4gg\
.	.	.	8c\L	.	.	.	.
4c/	4g\	.	8Bn\	.	2ee\	.	2gg\
.	.	.	8c\J	.	.	.	.
4c/	4g\	.	4C/	.	.	.	.
4r	4r	.	4r	.	8ff\L	.	8aa\L
.	.	.	.	.	8gg\J	.	8bb-X\J
=26	=26	=26	=26	=26	=26	=26	=26
4r	4r	.	8r	.	8ff\L	.	8aa\L
.	.	.	8c\L	.	8ee\J	.	8gg\J
!	!	!	!LO:SIC:v:s=8Bn\	!	!	!	!
4c/	4g\	.	8B-\	.	4ee\	.	4gg\
.	.	.	8c\J	.	.	.	.
!	!	!	!	!	!LO:LB:g=original	!	!
4c/	4g\	.	4C/	.	8cc\L	.	8ee\L
.	.	.	.	.	8dd\	.	8ff\
4r	4r	.	4r	.	8ee\	.	8gg\
.	.	.	.	.	8ff\J	.	8aa\J
!	!LO:LB:g=original	!	!	!	!	!	!
=27	=27	=27	=27	=27	=27	=27	=27
2r	2r	.	4c\	.	8ee\L	.	8gg\L
.	.	.	.	.	8aa\	.	8ccc\
.	.	.	4c\	.	8gg\	.	8bbn\
.	.	.	.	.	8ff\J	.	8aa\J
4c/	4g\	.	4G\	.	8ee\L	.	8gg\L
.	.	.	.	.	8dd\	.	8ff\
4c/	4g\	.	4GG/	.	8cc\	.	8ee\
.	.	.	.	.	8bn\J	.	8dd\J
=28	=28	=28	=28	=28	=28	=28	=28
*tremolo	*	*	*	*	*	*	*
!	!LO:TX:t=P:problem:mixed beam	!	!LO:TX:t=P:problem:mixed beam	!	!	!	!
!	!	!LO:DY:b	!	!	!	!	!
8c/L	8g\L	p	8C/L	.	4cc\	.	4cc\
8c/	8c/	.	8c\	.	.	.	.
8c/	8c/	.	8c\	.	4cc\	.	4ccc\
8c/J	8c/J	.	8c\J	.	.	.	.
*	*tremolo	*	*tremolo	*	*	*	*
8c/L	8c/L	.	8c\L	.	4cc\	.	4ccc\
8c/	8c/	.	8c\	.	.	.	.
8c/	8c/	.	8c\	.	4cc\	.	4ccc\
8c/J	8c/J	.	8c\J	.	.	.	.
*Xtremolo	*Xtremolo	*	*Xtremolo	*	*	*	*
!	!	!	!LO:LB:g=original	!	!	!	!
=29	=29	=29	=29	=29	=29	=29	=29
1C	1c	.	1C	.	4cc\	.	4ccc\
.	.	.	.	.	4ee\	.	4gg\
.	.	.	.	.	4ff\	.	4aa\
.	.	.	.	.	4gg\	.	4bb-X\
=30	=30	=30	=30	=30	=30	=30	=30
*	*	*	*tremolo	*	*	*	*
1C	1c	.	8C/L	.	4.aa\	.	4.aa\
.	.	.	8C/	.	.	.	.
.	.	.	8C/	.	.	.	.
.	.	.	8C/J	.	8bb-\	.	8ddd\
!	!	!	!	!	!	!	!LO:LB:g=original
.	.	.	8C/L	.	8gg\L	.	8bb-\L
.	.	.	8C/	.	8aa\	.	8ccc\
.	.	.	8C/	.	8ff\	.	8aa\
.	.	.	8C/J	.	8gg\J	.	8bb-\J
=31	=31	=31	=31	=31	=31	=31	=31
*tremolo	*tremolo	*	*	*	*	*	*
8C/L	8c/L	.	8C/L	.	4ee\	.	4gg\
8C/	8c/	.	8C/	.	.	.	.
8C/	8c/	.	8C/	.	8cc\L	.	8ccc\L
8C/J	8c/J	.	8C/J	.	8cc\J	.	8ccc\J
*	*	*	*	*	*tremolo	*	*tremolo
8C/L	8c/L	.	8C/L	.	8cc\L	.	8ccc\L
8C/	8c/	.	8C/	.	8cc\	.	8ccc\
8C/	8c/	.	8C/	.	8cc\	.	8ccc\
8C/J	8c/J	.	8C/J	.	8cc\J	.	8ccc\J
*Xtremolo	*Xtremolo	*	*	*	*Xtremolo	*	*Xtremolo
!LO:LB:g=original	!	!	!	!	!	!	!
=32	=32	=32	=32	=32	=32	=32	=32
1C	1c	.	8C/L	.	4cc\	.	4ccc\
.	.	.	8C/	.	.	.	.
.	.	.	8C/	.	4ee\	.	4gg\
.	.	.	8C/J	.	.	.	.
.	.	.	8C/L	.	4ff\	.	4aa\
.	.	.	8C/	.	.	.	.
.	.	.	8C/	.	4gg\	.	4bb-X\
.	.	.	8C/J	.	.	.	.
!	!	!	!	!	!LO:LB:g=original	!	!
=33	=33	=33	=33	=33	=33	=33	=33
1C	1c	.	8C/L	.	4.aa\	.	4.aa\
.	.	.	8C/	.	.	.	.
.	.	.	8C/	.	.	.	.
.	.	.	8C/J	.	8bb-\	.	8ddd\
.	.	.	8C/L	.	8gg\L	.	8bb-\L
.	.	.	8C/	.	8aa\	.	8ccc\
.	.	.	8C/	.	8ff\	.	8aa\
.	.	.	8C/J	.	8gg\J	.	8bb-\J
*	*	*	*Xtremolo	*	*	*	*
=34	=34	=34	=34	=34	=34	=34	=34
4C/	4c/	.	4C/	.	4ee\	.	4gg\
8A/L	8c/L	.	8c\L	.	4r	.	8r
8A/J	8c/J	.	8c\J	.	.	.	4r
4F/	4A/	.	8c\L	.	8r	.	.
.	.	.	8F\	.	8ff\L	.	8aa\L
4r	4r	.	8A\	.	8ff\	.	8aa\
.	.	.	8Bn\J	.	8ff\J	.	8aa\J
=35	=35	=35	=35	=35	=35	=35	=35
4r	4r	.	4c\	.	4ee\	.	4gg\
8A/L	8c/L	.	8c\L	.	4r	.	4r
8A/J	8c/J	.	8c\J	.	.	.	.
4F/	4A/	.	8c\L	.	8r	.	8r
.	.	.	8F\	.	8ff\L	.	8aa\L
4r	4r	.	8A\	.	8ff\	.	8aa\
.	.	.	8Bn\J	.	8ff\J	.	8aa\J
!	!LO:LB:g=original	!	!LO:LB:g=original	!	!	!	!
=36	=36	=36	=36	=36	=36	=36	=36
4c/	4g\	.	4c\	.	4ee\	.	4gg\
!LO:N:vis=4	!	!	!	!	!	!	!
8r	4r	.	8r	.	4r	.	4r
!LO:N:vis=4	!	!	!	!	!	!	!
8r	.	.	8c\	.	.	.	.
!	!	!	!	!	!	!	!LO:LB:g=original
4c/	4g\	.	8G\L	.	4ee\	.	4ccc\
.	.	.	8c\	.	.	.	.
4c/	4g\	.	8E\	.	4ee\	.	4ccc\
.	.	.	8G\J	.	.	.	.
=37	=37	=37	=37	=37	=37	=37	=37
2c/	2g\	.	2C/	.	2ee\	.	2ccc\
2r	2r	.	8c\L	.	4r	.	4r
.	.	.	8B-X\	.	.	.	.
.	.	.	8A\	.	4r	.	4cc\
.	.	.	8G\J	.	.	.	.
=38	=38	=38	=38	=38	=38	=38	=38
4r	4r	.	4F\	.	16F/LL	.	8ff\L
.	.	.	.	.	16A/	.	.
.	.	.	.	.	16c/	.	8aa\J
.	.	.	.	.	16A/JJ	.	.
*	*	*	*	*	*rep	*	*
4A/	4f\	.	4F\	.	16F/LL	.	4ccc\
.	.	.	.	.	16A/	.	.
.	.	.	.	.	16c/	.	.
.	.	.	.	.	16A/JJ	.	.
!	!	!	!	!	!LO:LB:g=original	!	!
*	*	*	*	*	*Xrep	*	*
*	*	*	*	*	*rep	*	*
4A/	4f\	.	4F\	.	16F/LL	.	8r
.	.	.	.	.	16A/	.	.
.	.	.	.	.	16c/	.	8ccc\L
.	.	.	.	.	16A/JJ	.	.
*	*	*	*	*	*Xrep	*	*
*	*	*	*	*	*rep	*	*
4r	4r	.	4F\	.	16F/LL	.	8aa\
.	.	.	.	.	16A/	.	.
.	.	.	.	.	16c/	.	8ff\J
.	.	.	.	.	16A/JJ	.	.
*	*	*	*	*	*Xrep	*	*
!LO:LB:g=original	!	!	!	!	!	!	!
=39	=39	=39	=39	=39	=39	=39	=39
4r	4r	.	4r	.	16G/LL	.	8ff\L
.	.	.	.	.	16B-/	.	.
.	.	.	.	.	16c/	.	8ee\J
.	.	.	.	.	16B-/JJ	.	.
*	*	*	*	*	*rep	*	*
4c/	4g\	.	4C/	.	16G/LL	.	4ee\
.	.	.	.	.	16B-/	.	.
.	.	.	.	.	16c/	.	.
.	.	.	.	.	16B-/JJ	.	.
*	*	*	*	*	*Xrep	*	*
*	*	*	*	*	*rep	*	*
4c/	4g\	.	4C/	.	16G/LL	.	8r
.	.	.	.	.	16B-/	.	.
.	.	.	.	.	16c/	.	8cc\L
.	.	.	.	.	16B-/JJ	.	.
*	*	*	*	*	*Xrep	*	*
*	*	*	*	*	*rep	*	*
4r	4r	.	4C/	.	16G/LL	.	8ee\
.	.	.	.	.	16B-/	.	.
.	.	.	.	.	16c/	.	8gg\J
.	.	.	.	.	16B-/JJ	.	.
*	*	*	*	*	*Xrep	*	*
=40	=40	=40	=40	=40	=40	=40	=40
4r	4r	.	4r	.	16c/LL	.	8ccc\L
.	.	.	.	.	16e/	.	.
.	.	.	.	.	16g/	.	8bb-\J
.	.	.	.	.	16e/JJ	.	.
*	*	*	*	*	*rep	*	*
4c/	4g\	.	4C/	.	16c/LL	.	4bb-\
.	.	.	.	.	16e/	.	.
.	.	.	.	.	16g/	.	.
.	.	.	.	.	16e/JJ	.	.
*	*	*	*	*	*Xrep	*	*
*	*	*	*	*	*rep	*	*
4c/	4g\	.	4C/	.	16c/LL	.	8r
.	.	.	.	.	16e/	.	.
.	.	.	.	.	16g/	.	8bb-\L
.	.	.	.	.	16e/JJ	.	.
*	*	*	*	*	*Xrep	*	*
*	*	*	*	*	*rep	*	*
4r	4r	.	4C/	.	16c/LL	.	8gg\
.	.	.	.	.	16e/	.	.
.	.	.	.	.	16g/	.	8ee\J
.	.	.	.	.	16e/JJ	.	.
*	*	*	*	*	*Xrep	*	*
=41	=41	=41	=41	=41	=41	=41	=41
4r	4r	.	4FF/	.	16A/LL	.	8ee\L
.	.	.	.	.	16c/	.	.
.	.	.	.	.	16f/	.	8ff\J
.	.	.	.	.	16c/JJ	.	.
*	*	*	*	*	*rep	*	*
4A/	4f\	.	4F\	.	16A/LL	.	4ff\
.	.	.	.	.	16c/	.	.
.	.	.	.	.	16f/	.	.
.	.	.	.	.	16c/JJ	.	.
*	*	*	*	*	*Xrep	*	*
!	!	!	!	!LO:DY:a	!	!	!
4A/	4f\	.	4EE/	f	4A/	.	4r
4r	4r	.	4A\	.	4a/	.	4cc\
!	!	!	!LO:LB:g=original	!	!	!	!
=42	=42	=42	=42	=42	=42	=42	=42
2A/	2f\	.	2FF/	.	8b-\L	.	8dd\L
.	.	.	.	.	8a\	.	8cc\
.	.	.	.	.	8a\	.	8cc\
.	.	.	.	.	8dd\J	.	8ff\J
!	!	!	!	!	!	!	!LO:LB:g=original
2r	2r	.	2r	.	8dd\L	.	8ff\L
.	.	.	.	.	8cc\	.	8ee\
.	.	.	.	.	8cc\	.	8ee\
.	.	.	.	.	8b-\J	.	8dd\J
!	!LO:LB:g=original	!	!	!	!LO:LB:g=original	!	!
=43	=43	=43	=43	=43	=43	=43	=43
2r	2r	.	2r	.	8b-\L	.	8dd\L
.	.	.	.	.	8a\	.	8cc\
.	.	.	.	.	8a\	.	8cc\
.	.	.	.	.	8g\J	.	8b-\J
2c/	2c/	.	2C/	.	8gg\L	.	8bb-\L
.	.	.	.	.	8ff\	.	8aa\
.	.	.	.	.	8ff\	.	8aa\
.	.	.	.	.	8ee\J	.	8gg\J
=44	=44	=44	=44	=44	=44	=44	=44
8A/	8f\	.	8F\	.	4ff\	.	16aa\LL
.	.	.	.	.	.	.	16ff\
8r	8r	.	8r	.	.	.	16gg\
.	.	.	.	.	.	.	16aa\JJ
8c/	8g\	.	8E\	.	4cc\	.	16bb-\LL
.	.	.	.	.	.	.	16gg\
8r	8r	.	8r	.	.	.	16aa\
.	.	.	.	.	.	.	16bb-\JJ
8c/	8f\	.	8F\	.	4cc\	.	16ccc\LL
.	.	.	.	.	.	.	16aa\
8r	8r	.	8r	.	.	.	16bb-\
.	.	.	.	.	.	.	16ccc\JJ
8A/	8f\	.	8A\	.	4ff\	.	16ddd\LL
.	.	.	.	.	.	.	16bb-\
8r	8r	.	8r	.	.	.	16aa\
.	.	.	.	.	.	.	16gg\JJ
!LO:LB:g=original	!	!	!	!	!	!	!
=45	=45	=45	=45	=45	=45	=45	=45
*	*	*	*tremolo	*	*	*	*
4A/	4f\	.	8c\L	.	4.a\	.	4.ff\
.	.	.	8c\	.	.	.	.
4r	4r	.	8c\	.	.	.	.
.	.	.	8c\J	.	8cc\	.	8aa\
4f\	4a\	.	8C/L	.	8cc\L	.	8aa\L
.	.	.	8C/	.	8b-\	.	8gg\
4c/	4g\	.	8C/	.	8a\	.	8ff\
.	.	.	8C/J	.	8g\J	.	8ee\J
*	*	*	*Xtremolo	*	*	*	*
!	!	!	!	!	!	!	!LO:LB:g=original
=46	=46	=46	=46	=46	=46	=46	=46
4A/	4f\	.	4F\	.	4a/	.	4ff\
4r	4r	.	4r	.	8aa\L	.	8ccc\L
.	.	.	.	.	8aa\J	.	8ccc\J
4r	4r	.	4r	.	8bb-\L	.	8ddd\L
.	.	.	.	.	8bb-\	.	8ddd\
8c/L	8g\L	.	8c\L	.	8gg\	.	8bb-\
8c/J	8g\J	.	8c\J	.	8gg\J	.	8bb-\J
=47	=47	=47	=47	=47	=47	=47	=47
4A/	4f\	.	4F\	.	4ff\	.	4ff\
4r	4r	.	4r	.	8cc\L	.	8ccc\L
.	.	.	.	.	8cc\J	.	8ccc\J
4r	4r	.	4r	.	8dd\L	.	8ddd\L
.	.	.	.	.	8dd\	.	8ddd\
8c/L	8g\L	.	8C/L	.	8b-\	.	8bb-\
8c/J	8g\J	.	8C/J	.	8b-\J	.	8bb-\J
!	!	!	!LO:LB:g=original	!	!LO:LB:g=original	!	!
=48	=48	=48	=48	=48	=48	=48	=48
4A/	4f\	.	4F\	.	4a/	.	4ff\
!	!	!	!	!	!LO:N:vis=4	!	!
4r	4r	.	4r	.	8r	.	4r
!	!LO:LB:g=original	!	!	!	!LO:N:vis=4	!	!
.	.	.	.	.	8r	.	.
4A/	4f\	.	4FF/	.	4a/	.	4ff\
4A/	4f\	.	4FF/	.	4a/	.	4ff\
=49	=49	=49	=49	=49	=49	=49	=49
!	!	!	!LO:SIC:v:s=2FF/	!	!	!	!
2A/	2f\	.	2EE/	.	4a/	.	2ff\
.	.	.	.	.	4r	.	.
!LO:TX:b:t=29	!LO:TX:b:t=29	!	!LO:TX:b:t=29	!	!LO:TX:b:t=29	!	!LO:TX:b:t=29
4ryy	4r	.	4r	.	4r	.	4r
==;;	==;;	==	==;;	==	==;;	==	==;;
*-	*-	*-	*-	*-	*-	*-	*-
!!!system-decoration: [(s1,s2,s3)][(s4,s5)]
!!!ENC: Andrzej Kubiczek
!!!END: 2021-06-16
!!!EED: Antoni Szymański
!!!EST: 2021-06-20
